X:1
T:Title
%%score 1 { ( 2 4 ) | ( 3 5 ) }
L:1/8
M:6/8
K:Db
V:1 treble nm="Choir Aahs"
V:2 treble nm="Grand Piano"
V:4 treble 
V:3 bass 
V:5 bass 
V:1
 z3 z2[Q:1/4=75] F/G/ | A=GA d2 c/d/ | e2 d B2 G/B/ | A=GA d2 F | E3- E z F/G/ | A=GA d2 c/d/ | %6
[M:7/8] edB d3 c/B/ |[M:3/4] A>G F F2 E |[M:5/8] D- D3 z |[M:1/8] F/F/ |[M:3/4] F_F =F B2 =A/B/ | %11
 c2 =A B2 F/F/ | =GF Ed cB |[M:13/16] A/-A/-A/-A/-A/-A-<A z F/G/ |[M:3/4] A=G A f2 e/d/ | %15
[M:7/8] edB d3 c/B/[Q:1/4=70][Q:1/4=66][Q:1/4=61] |[M:3/4] A>B d F2 E |[M:5/8] D- D3 z |] %18
V:2
 z3 z2 D/E/ | [A,F]_F=F[K:bass] z[K:treble] FF | z GG z GG | [A,F]_F=F [DF]2 [DA] | %4
 [CEA]3- [CEA] z D/E/ | [A,F]_F=F[K:bass] z[K:treble] FF |[M:7/8] z GG [DB]3 A/G/ | %7
[M:3/4] [A,F]>E D [FA]2 [EG] |[M:5/8] [A,DF]- [A,DF]3 z |[M:1/8] z | %10
[M:3/4][K:bass] z[K:treble] F .F2[K:bass][K:treble] FF | z[K:treble] F .F2[K:bass][K:treble] FF | %12
 =GF EE ED |[M:13/16] C-<CD[CE]3/2 z/ z/ z |[M:3/4] [A,FA][_F=G] .[A,=FA]2 [DF][DF] | %15
[M:7/8] z [DG][GB] [D_FB]3 z |[M:3/4] .[DFA]2 [DF] A2 c |[M:5/8] d2- [Gd-] [Fd] z |] %18
V:3
 z3 z2 F,/G,/ | z =G,A, z D[_CD] | z [B,D][B,D] z [B,D][B,D] | z =G,A, D,2 F, | %4
 A,2 E, .A,,2 F,/G,/ | z =G,A, z D[_CD] |[M:7/8] z [B,D][B,D] [G,,G,]3 C/B,/ | %7
[M:3/4] z z/ G,/ F, A,,2 C |[M:5/8] D,2 A,, D,, z |[M:1/8] z |[M:3/4] z [B,D] .[B,D]2 [B,D][B,D] | %11
 z [=A,C] .[A,C]2 [B,D][B,D] | B,A, .G,2 CB, |[M:13/16] E,-<E,F,G,3/2 z/ z/ z | %14
[M:3/4] z B, .D,2 _CC |[M:7/8] z B,D =G,,3 z |[M:3/4] z2 A,[K:treble] F2 G | %17
[M:5/8][K:bass] A,2 B, A, z |] %18
V:4
 x6 | z3[K:bass] .D,3[K:treble] | .G,3 .G,3 | x6 | x6 | z3[K:bass] .D,3[K:treble] | %6
[M:7/8] G,2 z z z z2 |[M:3/4] x6 |[M:5/8] x5 |[M:1/8] x | %10
[M:3/4][K:bass] B,,2[K:treble] z[K:bass] .B,,3[K:treble] | %11
 F,,2[K:treble] z[K:bass] .B,,3[K:treble] | z2 z .D3 |[M:13/16] x13/2 |[M:3/4] x6 |[M:7/8] x7 | %16
[M:3/4] x6 |[M:5/8] F2 z z2 |] %18
V:5
 x6 | .[D,,D,]3 .D,,3 | .G,,3 .G,,3 | .[D,,D,]3 z3 | x6 | .[D,,D,]3 .D,,3 |[M:7/8] G,,2 z z z z2 | %7
[M:3/4] A,,2 z2 z2 |[M:5/8] x5 |[M:1/8] x |[M:3/4] x6 | x6 | E,2 z .E,,3 | %13
[M:13/16] [A,,A,]/-[A,,A,]/-[A,,A,]-<[A,,-A,]A,,3/2 z/ z/ z |[M:3/4] D,2 z .D,3 | %15
[M:7/8] G,,2 z z z z2 |[M:3/4] A,,6[K:treble] |[M:5/8][K:bass] D,- D,3 z |] %18

